assets/images/icons/services_repair.svg

<svg width="87" height="87" viewBox="0 0 87 87" fill="none" xmlns="http://www.w3.org/2000/svg">
<path d="M11.5132 4.84633C15.6406 3.31831 20.322 4.29852 23.4903 7.46611C27.923 11.8988 27.923 19.0876 23.4901 23.5205C19.0563 27.9543 11.8684 27.9543 7.4346 23.5205C4.25369 20.3396 3.27969 15.6323 4.83395 11.4938C5.22621 10.4494 4.69754 9.28481 3.65311 8.89254C2.60869 8.50028 1.44413 9.02895 1.05187 10.0734C-1.05463 15.6825 0.265965 22.0653 4.5779 26.3772C10.5895 32.3888 20.3353 32.3888 26.3468 26.3772C32.3574 20.3666 32.3574 10.6198 26.3468 4.60921C22.0523 0.315728 15.7046 -1.01335 10.1105 1.05764C9.06431 1.44498 8.53011 2.60707 8.91744 3.65327C9.30477 4.69946 10.467 5.23366 11.5132 4.84633Z" fill="#390303"/>
<path d="M8.92013 4.64674L14.1357 9.86136C14.5629 10.2888 14.5629 10.9839 14.1356 11.4112L11.3814 14.1654C10.9532 14.5936 10.2597 14.5936 9.8315 14.1654L4.644 8.97889C3.85504 8.19012 2.57607 8.19022 1.7873 8.97919C0.998535 9.76815 0.998634 11.0471 1.7876 11.8359L6.97499 17.0222C8.98079 19.028 12.2323 19.028 14.2382 17.0221L16.9924 14.2679C18.9972 12.2631 18.9972 9.01105 16.993 7.00515L11.7766 1.78974C10.9877 1.00098 9.7087 1.00108 8.91993 1.79004C8.13117 2.579 8.13117 3.85797 8.92013 4.64674ZM75.4985 82.2267C71.3711 83.7547 66.6897 82.7745 63.5213 79.6069C59.0886 75.1742 59.0886 67.9854 63.5215 63.5525C67.9553 59.1187 75.1432 59.1187 79.577 63.5525C82.7579 66.7334 83.7319 71.4407 82.1777 75.5792C81.7854 76.6236 82.3141 77.7882 83.3585 78.1805C84.4029 78.5727 85.5675 78.0441 85.9598 76.9996C88.0663 71.3905 86.7457 65.0078 82.4337 60.6958C76.4222 54.6842 66.6763 54.6842 60.6648 60.6958C54.6542 66.7064 54.6542 76.4532 60.6648 82.4638C64.9593 86.7573 71.3071 88.0864 76.9011 86.0154C77.9473 85.628 78.4815 84.4659 78.0942 83.4197C77.7069 82.3735 76.5448 81.8393 75.4986 82.2267H75.4985Z" fill="#390303"/>
<path d="M78.0917 82.4263L72.8771 77.2117C72.449 76.7836 72.449 76.0895 72.8765 75.6624L75.6306 72.9072C76.0586 72.4793 76.7521 72.4793 77.1802 72.9075L82.3677 78.094C83.1567 78.8828 84.4357 78.8827 85.2244 78.0937C86.0132 77.3048 86.0131 76.0258 85.2241 75.2371L80.0367 70.0507C78.031 68.0449 74.7794 68.0449 72.7735 70.0508L70.02 72.8054C68.0143 74.8095 68.0143 78.0624 70.0203 80.0685L75.2349 85.2831C76.0238 86.072 77.3027 86.072 78.0916 85.2831C78.8805 84.4942 78.8805 83.2153 78.0916 82.4264L78.0917 82.4263ZM59.5248 65.8093L20.9337 27.2183C20.1448 26.4294 18.8659 26.4294 18.077 27.2183C17.2881 28.0071 17.2881 29.2861 18.077 30.075L56.6681 68.666C57.4569 69.4549 58.7359 69.4549 59.5248 68.666C60.3136 67.8772 60.3136 66.5982 59.5248 65.8093ZM26.9068 20.544L66.3968 60.034C67.1857 60.8228 68.4647 60.8228 69.2535 60.034C70.0424 59.2451 70.0424 57.9661 69.2535 57.1773L29.7635 17.6873C28.9746 16.8984 27.6957 16.8984 26.9068 17.6873C26.1179 18.4761 26.1179 19.7551 26.9068 20.544ZM52.1486 31.6421L69.5802 14.2106C70.3691 13.4217 70.3691 12.1427 69.5802 11.3539C68.7913 10.565 67.5124 10.565 66.7235 11.3539L49.2919 28.7854C48.503 29.5743 48.503 30.8533 49.2919 31.6421C50.0808 32.431 51.3598 32.431 52.1486 31.6421ZM73.2948 16.8557L55.2896 34.6862C54.4969 35.4713 54.4907 36.7502 55.2757 37.5429C56.0607 38.3357 57.3397 38.3419 58.1324 37.5568L76.1376 19.7263C76.9303 18.9413 76.9365 17.6623 76.1515 16.8696C75.3665 16.0769 74.0875 16.0707 73.2948 16.8557Z" fill="#390303"/>
<path d="M86.2791 5.92151C86.547 6.18951 86.7342 6.52749 86.8192 6.89683C86.9042 7.26618 86.8836 7.65198 86.7597 8.01016L83.9782 16.0518C83.8782 16.3409 83.7138 16.6035 83.4975 16.8198C83.2812 17.0361 83.0186 17.2005 82.7296 17.3005L74.6869 20.083C74.3287 20.207 73.9429 20.2276 73.5735 20.1426C73.204 20.0576 72.866 19.8703 72.598 19.6023L67.3389 14.3422C67.0709 14.0742 66.8838 13.7362 66.7988 13.3669C66.7138 12.9976 66.7345 12.6118 66.8584 12.2536L69.6399 4.212C69.7399 3.92293 69.9042 3.66035 70.1205 3.44405C70.3368 3.22776 70.5993 3.06341 70.8884 2.96341L78.93 0.180881C79.2882 0.0569259 79.6741 0.0362645 80.0435 0.12126C80.4129 0.206255 80.7509 0.393476 81.0189 0.661519L86.279 5.92161L86.2791 5.92151ZM79.0564 4.41223L73.1372 6.46034L71.0898 12.3797L74.5611 15.8517L80.4811 13.8035L82.5285 7.8843L79.0565 4.41223H79.0564ZM37.5157 58.1247L13.5908 82.0496C12.8514 82.789 11.9632 82.8846 11.6444 82.5661L4.29222 75.2139C3.97433 74.8957 4.0699 74.008 4.80985 73.2676L28.6878 49.3907C29.4766 48.6018 29.4766 47.3228 28.6879 46.534C27.8991 45.7451 26.62 45.7451 25.8312 46.5339L1.95275 70.4113C-0.24479 72.6103 -0.612 76.0212 1.43503 78.0699L8.7884 85.4233C10.8378 87.4709 14.2502 87.1036 16.4476 84.9062L40.3725 60.9813C41.1614 60.1924 41.1614 58.9135 40.3725 58.1246C39.5836 57.3357 38.3047 57.3357 37.5158 58.1246L37.5157 58.1247Z" fill="#390303"/>
</svg>

<svg width="87" height="87" fill="none" xmlns="http://www.w3.org/2000/svg"><path d="M11.513 4.846a11.354 11.354 0 0 1 11.977 2.62c4.433 4.433 4.433 11.622 0 16.054-4.434 4.434-11.622 4.434-16.055 0a11.353 11.353 0 0 1-2.601-12.026 2.02 2.02 0 1 0-3.782-1.42 15.393 15.393 0 0 0 3.526 16.303c6.011 6.012 15.757 6.012 21.769 0 6.01-6.01 6.01-15.757 0-21.768A15.394 15.394 0 0 0 10.11 1.058a2.02 2.02 0 1 0 1.402 3.788Z" fill="#390303"/><path d="m8.92 4.647 5.216 5.214a1.097 1.097 0 0 1 0 1.55l-2.755 2.754a1.096 1.096 0 0 1-1.55 0L4.644 8.98a2.02 2.02 0 1 0-2.856 2.857l5.187 5.186a5.136 5.136 0 0 0 7.263 0l2.754-2.754a5.137 5.137 0 0 0 .001-7.263L11.777 1.79A2.02 2.02 0 0 0 8.92 4.647ZM75.5 82.227a11.354 11.354 0 0 1-11.978-2.62c-4.432-4.433-4.432-11.622 0-16.054 4.434-4.434 11.622-4.434 16.056 0a11.353 11.353 0 0 1 2.6 12.026A2.02 2.02 0 1 0 85.96 77a15.393 15.393 0 0 0-3.526-16.303c-6.012-6.012-15.758-6.012-21.77 0-6.01 6.01-6.01 15.757 0 21.768a15.394 15.394 0 0 0 16.237 3.551 2.02 2.02 0 0 0-1.402-3.788Z" fill="#390303"/><path d="m78.092 82.426-5.215-5.214a1.096 1.096 0 0 1 0-1.55l2.754-2.755a1.095 1.095 0 0 1 1.55 0l5.187 5.187a2.02 2.02 0 1 0 2.856-2.857l-5.187-5.186a5.136 5.136 0 0 0-7.264 0l-2.753 2.754a5.135 5.135 0 0 0 0 7.263l5.215 5.215a2.02 2.02 0 1 0 2.857-2.857ZM59.525 65.81 20.934 27.22a2.02 2.02 0 1 0-2.857 2.856l38.591 38.591a2.02 2.02 0 1 0 2.857-2.857ZM26.907 20.544l39.49 39.49a2.02 2.02 0 0 0 2.856-2.857l-39.49-39.49a2.02 2.02 0 1 0-2.856 2.857Zm25.242 11.098L69.58 14.211a2.02 2.02 0 1 0-2.856-2.857L49.291 28.785a2.02 2.02 0 1 0 2.857 2.857Zm21.146-14.786L55.29 34.686a2.02 2.02 0 0 0 2.842 2.87l18.006-17.83a2.02 2.02 0 0 0-2.843-2.87Z" fill="#390303"/><path d="M86.28 5.922a2.02 2.02 0 0 1 .48 2.088l-2.782 8.042A2.02 2.02 0 0 1 82.73 17.3l-8.043 2.783a2.02 2.02 0 0 1-2.089-.48l-5.26-5.26a2.02 2.02 0 0 1-.48-2.09l2.782-8.041a2.02 2.02 0 0 1 1.248-1.249L78.93.181a2.02 2.02 0 0 1 2.089.48l5.26 5.26Zm-7.224-1.51L73.137 6.46l-2.047 5.92 3.471 3.472 5.92-2.049 2.047-5.919-3.472-3.472Zm-41.54 53.713L13.59 82.05c-.74.739-1.628.835-1.947.516l-7.352-7.352c-.318-.318-.222-1.206.518-1.946L28.688 49.39a2.02 2.02 0 0 0-2.857-2.857L1.953 70.41c-2.198 2.2-2.565 5.61-.518 7.659l7.353 7.353c2.05 2.048 5.462 1.68 7.66-.517l23.925-23.925a2.02 2.02 0 1 0-2.857-2.856Z" fill="#390303"/></svg>
